svg/Pictogram/pictograms-aem-0103-machine_run_over.svg

<?xml version="1.0" encoding="ISO-8859-1" standalone="yes"?>
<svg height="305.241" width="305.241">
  <metadata>
    <rdf:RDF xmlns:cc="http://web.resource.org/cc/" xmlns:dc="http://purl.org/dc/elements/1.1/" xmlns:rdf="http://www.w3.org/1999/02/22-rdf-syntax-ns#">
      <cc:Work rdf:about="">
        <dc:title></dc:title>
        <dc:description></dc:description>
        <dc:subject>
          <rdf:Bag>
            <rdf:li></rdf:li>
          </rdf:Bag>
        </dc:subject>
        <dc:publisher>
          <cc:Agent rdf:about="http://www.unece.org/trans/danger/publi/ghs/pictograms.html">
            <dc:title>Source: UNECE GHS of Classification and Labeling of Chemicals, Source: AEM Pictorial Database, Source: AEM Pictorial Database, Source: AEM Pictorial Database, Source: AEM Pictorial Database</dc:title>
          </cc:Agent>
        </dc:publisher>
        <dc:creator>
          <cc:Agent>
            <dc:title></dc:title>
          </cc:Agent>
        </dc:creator>
        <dc:rights>
          <cc:Agent>
            <dc:title></dc:title>
          </cc:Agent>
        </dc:rights>
        <dc:date></dc:date>
        <dc:format>image/svg+xml</dc:format>
        <dc:type rdf:resource="http://purl.org/dc/dcmitype/StillImage"/>
        <cc:license rdf:resource="http://en.wikipedia.org/wiki/Public_domain"/>
        <dc:language>en</dc:language>
      </cc:Work>
    </rdf:RDF>
  </metadata>
  <defs><marker id="ArrowEnd" markerHeight="3" markerUnits="strokeWidth" markerWidth="4" orient="auto" refX="0" refY="5" viewBox="0 0 10 10"><path d="M 0 0 L 10 5 L 0 10 z"/></marker><marker id="ArrowStart" markerHeight="3" markerUnits="strokeWidth" markerWidth="4" orient="auto" refX="10" refY="5" viewBox="0 0 10 10"><path d="M 10 0 L 0 5 L 10 10 z"/></marker> </defs>
  <g id="g2958" transform="matrix(1.3532768,0,0,1.3532781,-53.207834,-52.192858)">
    <path d="M 80.5657 212.472L 205.284 212.472L 205.284 209.226L 80.5657 209.226L 80.5657 212.472z" style="stroke:none; fill-rule:evenodd; fill:#000000"/>
    <path d="M 216.862 240.226L 196.362 226.597L 199.792 221.441L 234.495 242.476L 199.71 264.023L 195.069 258.702L 216.069 246.16L 82.3509 246.16L 82.3509 240.23L 216.862 240.226" style="stroke:none; fill-rule:evenodd; fill:#000000"/>
    <path d="M 81.347 41.8044L 81.347 45.2224L 128.136 45.2224C 134.991 45.2224 140.569 50.8004 140.569 57.6554L 140.569 112.155C 140.569 119.015 134.991 124.593 128.136 124.593L 81.347 124.593L 81.347 128.011L 128.136 128.011C 136.878 128.011 143.987 120.897 143.987 112.155L 143.987 57.6554C 143.987 48.9174 136.878 41.8044 128.136 41.8044L 81.347 41.8044" style="stroke:none; fill-rule:evenodd; fill:#000000"/>
    <path d="M 81.5735 139.597C 99.3392 139.597 113.737 153.995 113.737 171.757C 113.737 189.522 99.3392 203.921 81.5774 203.921" style="stroke:none; fill-rule:evenodd; fill:#ffffff"/>
    <path d="M 81.5735 141.304C 98.3665 141.304 112.03 154.964 112.03 171.757C 112.03 188.55 98.3665 202.21 81.5735 202.21L 81.5735 205.628C 100.253 205.628 115.444 190.432 115.444 171.757C 115.444 153.081 100.253 137.886 81.5735 137.886L 81.5735 141.304" style="stroke:none; fill-rule:evenodd; fill:#000000"/>
    <path d="M 81.0735 157.718C 89.0618 157.718 95.5579 164.214 95.5579 172.198C 95.5579 180.186 89.0618 186.682 81.0735 186.682L 81.0735 190.1C 90.9446 190.1 98.9759 182.069 98.9759 172.198C 98.9759 162.331 90.9446 154.3 81.0735 154.3L 81.0735 157.718" style="stroke:none; fill-rule:evenodd; fill:#000000"/>
    <path d="M 158.671 62.7804C 158.671 59.8704 156.311 57.5154 153.401 57.5154C 150.495 57.5154 148.136 59.8704 148.136 62.7804L 147.792 113.975L 145.722 117.858C 145.722 117.858 145.155 120.475 144.327 121.823C 143.499 123.175 142.362 124.71 142.362 124.71L 136.929 135.452L 119.222 160.405L 115.35 164.921C 115.35 164.921 116.046 168.323 116.046 171.69C 116.046 175.054 115.495 178.972 114.64 181.534L 127.249 166.765L 146.186 140.093L 134.886 169.077L 118.268 194.847L 126.897 200.475L 144.003 173.862L 155.682 144.323L 168.19 119.042L 186.499 109.663L 186.538 108.87L 188.046 108.682L 207.561 91.8784L 200.815 83.9684L 181.679 100.319L 165.026 108.909L 158.432 105.632L 158.245 88.5264L 158.671 62.7804" style="stroke:none; fill-rule:evenodd; fill:#000000"/>
    <path d="M 127.936 197.503C 127.936 200.382 125.604 202.718 122.725 202.718C 119.847 202.718 117.515 200.382 117.515 197.503C 117.515 194.624 119.847 192.292 122.725 192.292C 125.604 192.292 127.936 194.628 127.936 197.503" style="stroke:none; fill-rule:evenodd; fill:#000000"/>
    <path d="M 189.823 104.772C 189.823 107.651 187.491 109.987 184.612 109.987C 181.737 109.987 179.401 107.651 179.401 104.772C 179.401 101.893 181.737 99.5584 184.612 99.5584C 187.491 99.5584 189.823 101.893 189.823 104.772" style="stroke:none; fill-rule:evenodd; fill:#000000"/>
    <path d="M 209.518 87.8934C 209.518 90.7724 207.182 93.1044 204.304 93.1044C 201.429 93.1044 199.093 90.7724 199.093 87.8934C 199.093 85.0154 201.429 82.6824 204.304 82.6824C 207.182 82.6824 209.518 85.0154 209.518 87.8934" style="stroke:none; fill-rule:evenodd; fill:#000000"/>
    <path d="M 176.378 93.7254C 176.378 98.5544 172.464 102.468 167.64 102.468C 164.175 102.468 161.182 100.452 159.768 97.5304C 159.733 97.4644 159.62 97.2294 159.62 97.2294L 159.62 90.3584C 159.62 90.3584 159.628 90.2224 159.659 90.1514C 161.026 87.1084 164.085 84.9834 167.64 84.9834C 172.464 84.9834 176.378 88.8974 176.378 93.7254" style="stroke:none; fill-rule:evenodd; fill:#000000"/>
    <path d="M 29.6204 266.62L 2.62042 266.62" style="stroke:#000000; stroke-width:0.5; fill:none"/>
    <path d="M 38.6204 275.62L 38.6204 302.62" style="stroke:#000000; stroke-width:0.5; fill:none"/>
    <path d="M 29.6204 38.6204L 2.62042 38.6204" style="stroke:#000000; stroke-width:0.5; fill:none"/>
    <path d="M 38.6204 29.6204L 38.6204 2.62042" style="stroke:#000000; stroke-width:0.5; fill:none"/>
    <path d="M 275.62 38.6204L 302.62 38.6204" style="stroke:#000000; stroke-width:0.5; fill:none"/>
    <path d="M 266.62 29.6204L 266.62 2.62042" style="stroke:#000000; stroke-width:0.5; fill:none"/>
    <path d="M 275.62 266.62L 302.62 266.62" style="stroke:#000000; stroke-width:0.5; fill:none"/>
    <path d="M 266.62 275.62L 266.62 302.62" style="stroke:#000000; stroke-width:0.5; fill:none"/>
  </g>
</svg>

<svg viewBox="0 0 305.24 305.24"><g transform="matrix(1.35328 0 0 1.35328-53.21-52.19)" fill-rule="evenodd"><path d="m80.57 212.47h124.72v-3.246h-124.72v3.246"/><path d="m216.86 240.23l-20.5-13.629 3.43-5.156 34.703 21.03-34.785 21.547-4.641-5.321 21-12.542h-133.72v-5.93l134.51-.004"/><path d="m81.35 41.804v3.418h46.789c6.855 0 12.433 5.578 12.433 12.433v54.5c0 6.86-5.578 12.438-12.433 12.438h-46.789v3.418h46.789c8.742 0 15.851-7.114 15.851-15.856v-54.5c0-8.738-7.109-15.851-15.851-15.851h-46.789"/><path d="m81.57 139.6c17.766 0 32.16 14.398 32.16 32.16 0 17.765-14.398 32.16-32.16 32.16" fill="#fff"/><path d="m81.57 141.3c16.793 0 30.457 13.66 30.457 30.453 0 16.793-13.663 30.453-30.457 30.453v3.418c18.68 0 33.871-15.196 33.871-33.871 0-18.676-15.191-33.871-33.871-33.871v3.418"/><path d="m81.07 157.72c7.988 0 14.484 6.496 14.484 14.48 0 7.988-6.496 14.484-14.484 14.484v3.418c9.871 0 17.902-8.03 17.902-17.902 0-9.867-8.03-17.898-17.902-17.898v3.418"/><path d="m158.67 62.78c0-2.91-2.36-5.265-5.27-5.265-2.906 0-5.265 2.355-5.265 5.265l-.344 51.19-2.07 3.883c0 0-.567 2.617-1.395 3.965-.828 1.352-1.965 2.887-1.965 2.887l-5.433 10.742-17.707 24.953-3.872 4.516c0 0 .696 3.402.696 6.769 0 3.364-.551 7.282-1.406 9.844l12.609-14.769 18.937-26.672-11.3 28.984-16.618 25.77 8.629 5.628 17.11-26.613 11.679-29.539 12.508-25.281 18.309-9.379.039-.793 1.508-.188 19.515-16.804-6.746-7.91-19.14 16.351-16.653 8.59-6.594-3.277-.187-17.11.426-25.746"/><path d="m127.94 197.5c0 2.879-2.332 5.215-5.211 5.215-2.878 0-5.21-2.336-5.21-5.215 0-2.879 2.332-5.211 5.21-5.211 2.879 0 5.211 2.336 5.211 5.211"/><path d="m189.82 104.77c0 2.879-2.332 5.215-5.211 5.215-2.875 0-5.211-2.336-5.211-5.215 0-2.879 2.336-5.214 5.211-5.214 2.879 0 5.211 2.335 5.211 5.214"/><path d="m209.52 87.89c0 2.879-2.336 5.211-5.214 5.211-2.875 0-5.211-2.332-5.211-5.211 0-2.878 2.336-5.211 5.211-5.211 2.878 0 5.214 2.333 5.214 5.211"/><path d="m176.38 93.73c0 4.829-3.914 8.743-8.738 8.743-3.465 0-6.458-2.02-7.872-4.938-.035-.066-.148-.301-.148-.301v-6.871c0 0 .008-.136.039-.207 1.367-3.043 4.426-5.168 7.981-5.168 4.824 0 8.738 3.914 8.738 8.742"/></g></svg>
